X: 35221
T: Rosaleen's Children
R: jig
M: 6/8
K: Fdorian
|:CFF AGF|ABc eBc|CFF AGF|GFE DCB,|
CFF AGF|ABc edc|=f^fg =fec|1 BG=E F2_E:|2 BG=E F3||
|:cff =ecB|cff =e3|cff efg|bga f2e|
cff =ecB|cff efg|agf gfe|1 cBG F3:|2 cBG F2E||

